X:0981
T:Charlie Stewart.
M:C
L:1/8
Q:1/4=120
I: :: :|
Z:Jack Campin * www.campin.me.uk * 2009
K:E Minor
E<EG>A B2 d>e|d>BA>G F2 G>F|E<EG>A B2 d3/c//d//|e>BA>G       F2D2:|
e>eB>B d>eg>a|f>ed>f g>fe>B|e>dB>B d>eg>a      |B>gf3/e//d// e2e2:|

